packages/icons/src/video-two.svg

<svg width="24" height="24" viewBox="0 0 24 24" fill="none" xmlns="http://www.w3.org/2000/svg">
<path d="M10.4392 14.8245L17.3795 10.3603L10.4392 5.89023V14.8245ZM6.74413 19.3152C6.22665 19.3152 5.77517 19.1198 5.38971 18.7291C5.00424 18.3383 4.81151 17.8895 4.81151 17.3826V3.41413C4.81151 2.90565 5.00424 2.45543 5.38971 2.06348C5.77517 1.67153 6.22665 1.47556 6.74413 1.47556H20.7126C21.2211 1.47556 21.6703 1.67153 22.0603 2.06348C22.4502 2.45543 22.6452 2.90565 22.6452 3.41413V17.3826C22.6452 17.8895 22.4502 18.3383 22.0603 18.7291C21.6703 19.1198 21.2211 19.3152 20.7126 19.3152H6.74413ZM6.74413 17.3826H20.7126V3.41413H6.74413V17.3826ZM3.31151 22.7479C2.79239 22.7479 2.34051 22.5529 1.95586 22.1629C1.57122 21.7729 1.37891 21.3237 1.37891 20.8152V4.91413H3.31151V20.8152H19.2126V22.7478L3.31151 22.7479Z" fill="black"/>
</svg>

<svg xmlns="http://www.w3.org/2000/svg" width="24" height="24" fill="none" viewBox="0 0 24 24">
  <path fill="#000" d="m10.44 14.825 6.94-4.465-6.94-4.47v8.935Zm-3.696 4.49c-.517 0-.969-.195-1.354-.586-.386-.39-.578-.84-.578-1.346V3.414c0-.508.192-.959.578-1.35.385-.392.837-.588 1.354-.588h13.969c.508 0 .957.196 1.347.587.39.392.585.843.585 1.351v13.969c0 .507-.195.955-.585 1.346-.39.39-.839.586-1.347.586H6.744Zm0-1.932h13.969V3.414H6.744v13.969Zm-3.432 5.365c-.52 0-.971-.195-1.356-.585-.385-.39-.577-.84-.577-1.348v-15.9h1.933v15.9h15.9v1.933h-15.9Z"/>
</svg>
